src/assets/duotone/Tenx.svg

<svg width="24" height="24" viewBox="0 0 24 24"  xmlns="http://www.w3.org/2000/svg">
<path opacity="0.4" d="M12 22C17.5228 22 22 17.5228 22 12C22 6.47715 17.5228 2 12 2C6.47715 2 2 6.47715 2 12C2 17.5228 6.47715 22 12 22Z" />
<path d="M12 12.0005L9.45998 9.46047C9.06998 9.07047 8.43998 9.07047 8.04998 9.46047L6.20998 11.3005C5.81998 11.6905 5.81998 12.3205 6.20998 12.7105L8.04998 14.5505C8.43998 14.9405 9.06998 14.9405 9.45998 14.5505L14.55 9.46047C14.94 9.07047 15.57 9.07047 15.96 9.46047L17.8 11.3005C18.19 11.6905 18.19 12.3205 17.8 12.7105L15.96 14.5505C15.57 14.9405 14.94 14.9405 14.55 14.5505L12 12.0005Z" />
</svg>

<?xml version="1.0" encoding="UTF-8"?>
<svg width="24" height="24" viewBox="0 0 24 24" xmlns="http://www.w3.org/2000/svg">
 <path d="m12 22c5.5228 0 10-4.4772 10-10 0-5.5228-4.4772-10-10-10-5.5228 0-10 4.4772-10 10 0 5.5228 4.4772 10 10 10z" opacity=".4"/>
 <path d="m12 12-2.54-2.54c-0.39-0.39-1.02-0.39-1.41 0l-1.84 1.84c-0.39 0.39-0.39 1.02 0 1.41l1.84 1.84c0.39 0.39 1.02 0.39 1.41 0l5.09-5.09c0.39-0.39 1.02-0.39 1.41 0l1.84 1.84c0.39 0.39 0.39 1.02 0 1.41l-1.84 1.84c-0.39 0.39-1.02 0.39-1.41 0l-2.55-2.55z"/>
</svg>
